icon/pk/file-lock.svg

<svg viewBox="0 0 48 48" fill="none" xmlns="http://www.w3.org/2000/svg" height="1em" width="1em">
  <path d="M10 44H38C39.1046 44 40 43.1046 40 42V14H30V4H10C8.89543 4 8 4.89543 8 6V42C8 43.1046 8.89543 44 10 44Z" fill="#2F88FF" stroke="black" stroke-width="4" stroke-linecap="round" stroke-linejoin="round"/>
  <path d="M30 4L40 14" stroke="black" stroke-width="4" stroke-linecap="round" stroke-linejoin="round"/>
  <rect x="17" y="27" width="14" height="8" fill="#43CCF8" stroke="white" stroke-width="4" stroke-linecap="round" stroke-linejoin="round"/>
  <path d="M28 27V23C28 21.3431 27 19 24 19C21 19 20 21.3431 20 23V27" stroke="white" stroke-width="4" stroke-linecap="round" stroke-linejoin="round"/>
</svg>

<svg width="48" height="48" fill="none" xmlns="http://www.w3.org/2000/svg"><path d="M10 44h28a2 2 0 0 0 2-2V14H30V4H10a2 2 0 0 0-2 2v36a2 2 0 0 0 2 2Z" fill="#2F88FF" stroke="#000" stroke-width="4" stroke-linecap="round" stroke-linejoin="round"/><path d="m30 4 10 10" stroke="#000" stroke-width="4" stroke-linecap="round" stroke-linejoin="round"/><path fill="#43CCF8" stroke="#fff" stroke-width="4" stroke-linecap="round" stroke-linejoin="round" d="M17 27h14v8H17z"/><path d="M28 27v-4c0-1.657-1-4-4-4s-4 2.343-4 4v4" stroke="#fff" stroke-width="4" stroke-linecap="round" stroke-linejoin="round"/></svg>
